svgs/sharp-solid/hospital.svg

<svg xmlns="http://www.w3.org/2000/svg" viewBox="0 0 640 512"><!--! Font Awesome Pro 6.6.0 by @fontawesome - https://fontawesome.com License - https://fontawesome.com/license (Commercial License) Copyright 2024 Fonticons, Inc. --><path d="M192 0L448 0l0 512-80 0 0-128-96 0 0 128-80 0L192 0zM160 96l0 416L0 512 0 320l80 0 16 0 0-32-16 0L0 288l0-64 80 0 16 0 0-32-16 0L0 192 0 96l160 0zm320 0l160 0 0 96-80 0-16 0 0 32 16 0 80 0 0 64-80 0-16 0 0 32 16 0 80 0 0 192-160 0 0-416zM344 64l-48 0 0 40-40 0 0 48 40 0 0 40 48 0 0-40 40 0 0-48-40 0 0-40z"/></svg>

<svg xmlns="http://www.w3.org/2000/svg" viewBox="0 0 640 512"><!--! Font Awesome Pro 6.5.2 by @fontawesome - https://fontawesome.com License - https://fontawesome.com/license (Commercial License) Copyright 2024 Fonticons, Inc. --><path d="M192 0H448V512H368V384H272V512H192V0zM160 96V512H0V320H80 96V288H80 0V224H80 96V192H80 0V96H160zm320 0H640v96H560 544v32h16 80v64H560 544v32h16 80V512H480V96zM344 64H296v40H256v48h40v40h48V152h40V104H344V64z"/></svg>
